X: 156
T: Saturday Night and Sunday Morning
M:6/8
L:1/8
Q:160
S:Playford
O:Manuscript
A:English
K:D
f|f>ed a2 A| eee e2 g|f>ed a2 A|ddd d2 f|f>ed a2 A|eee e2 g|f>ed a2 A|dd d d2:|
|: c|B>AG F>ED| eee e2 c|B>AG F>ED|ddd d2 c|B>AG FED|eee e2  d|c>BA GFE|ddd d2:|

